src/assets/images/Tb..svg

<svg width="37" height="19" viewBox="0 0 37 19" fill="none" xmlns="http://www.w3.org/2000/svg">
<path d="M5.208 4.08H0.36L0.36 0.215999L15.24 0.215999V4.08H10.392L10.392 18H5.208L5.208 4.08ZM35.9933 13.752C36.5533 14.264 36.8333 14.896 36.8333 15.648C36.8333 16.4 36.5533 17.032 35.9933 17.544C35.4333 18.056 34.7293 18.312 33.8813 18.312C33.0493 18.312 32.3453 18.056 31.7693 17.544C31.2093 17.032 30.9293 16.4 30.9293 15.648C30.9293 14.896 31.2093 14.264 31.7693 13.752C32.3453 13.24 33.0493 12.984 33.8813 12.984C34.7293 12.984 35.4333 13.24 35.9933 13.752Z" fill="#E11F1F"/>
<path d="M18.2254 0.215999L22.5934 0.215999C24.2574 0.215999 25.5694 0.607999 26.5294 1.392C27.5054 2.16 27.9934 3.224 27.9934 4.584C27.9934 5.608 27.7054 6.464 27.1294 7.152C26.5534 7.84 25.7694 8.288 24.7774 8.496C26.0414 8.672 27.0414 9.168 27.7774 9.984C28.5294 10.784 28.9054 11.816 28.9054 13.08C28.9054 14.584 28.3694 15.784 27.2974 16.68C26.2414 17.56 24.8014 18 22.9774 18H18.2254L18.2254 0.215999ZM18.8734 17.424H22.9534C24.5854 17.424 25.8734 17.04 26.8174 16.272C27.7774 15.504 28.2574 14.44 28.2574 13.08C28.2574 11.752 27.7934 10.712 26.8654 9.96C25.9374 9.208 24.6654 8.832 23.0494 8.832L18.8734 8.832L18.8734 17.424ZM22.9774 8.256C24.3534 8.256 25.4174 7.936 26.1694 7.296C26.9374 6.64 27.3214 5.744 27.3214 4.608C27.3214 3.424 26.8974 2.496 26.0494 1.824C25.2014 1.136 24.0414 0.792 22.5694 0.792H18.8734L18.8734 8.256L22.9774 8.256Z" fill="white"/>
</svg>

<svg width="37" height="19" fill="none" xmlns="http://www.w3.org/2000/svg"><path d="M5.208 4.08H.36V.216h14.88V4.08h-4.848V18H5.208V4.08Zm30.785 9.672c.56.512.84 1.144.84 1.896s-.28 1.384-.84 1.896c-.56.512-1.264.768-2.112.768-.832 0-1.536-.256-2.112-.768a2.467 2.467 0 0 1-.84-1.896c0-.752.28-1.384.84-1.896.576-.512 1.28-.768 2.112-.768.848 0 1.552.256 2.112.768Z" fill="#E11F1F"/><path d="M18.225.216h4.368c1.664 0 2.976.392 3.936 1.176.976.768 1.464 1.832 1.464 3.192 0 1.024-.288 1.88-.864 2.568-.576.688-1.36 1.136-2.352 1.344 1.264.176 2.264.672 3 1.488.752.8 1.128 1.832 1.128 3.096 0 1.504-.536 2.704-1.608 3.6-1.056.88-2.496 1.32-4.32 1.32h-4.752V.216Zm.648 17.208h4.08c1.632 0 2.92-.384 3.864-1.152.96-.768 1.44-1.832 1.44-3.192 0-1.328-.464-2.368-1.392-3.12-.928-.752-2.2-1.128-3.816-1.128h-4.176v8.592Zm4.104-9.168c1.376 0 2.44-.32 3.192-.96.768-.656 1.152-1.552 1.152-2.688 0-1.184-.424-2.112-1.272-2.784-.848-.688-2.008-1.032-3.48-1.032h-3.696v7.464h4.104Z" fill="#fff"/></svg>
